X:1
T:God Sendeth All
T:God Sendeth All
T:Rosa Steinhauer
T:Rosa Steinhauer, 1898
T:Public Domain Courtesy of the Cyber Hymnal™
C:Rosa Steinhauer
Z:Public Domain
Z:Courtesy of the Cyber Hymnal™
%%score ( 1 2 ) ( 3 4 )
L:1/8
Q:1/4=108
M:4/4
K:G
V:1 treble 
V:2 treble 
V:3 bass 
V:4 bass 
V:1
 [GB]4 [DA]2 [DG]2 | [FA]6 z2 | [FA]2 ([FA][FA]) [EG]2 [FA]2 | [GB]6 z2 | [DB]4 [CA]2 [B,G]2 | %5
w: 1.~God send- eth|all;|Kind His * bless- ings|fall;|In love and|
w: 2.~Send what Thou|will,|Be it * good or|ill;|Keep me from|
w: 3.~Take what Thou|will,|Save from * ev- ery|ill;|Though it may|
w: 4.~Give what I|need,|Chast- en,~that * I may|heed,|From ev- ery|
 [DF]2 [CE]2 D2 D2 | [CE]2 [CG]2 [CF]2 [CA]2 | [B,G]6 z2 |] %8
w: ten- der- ness, He|chas- tens but to|bless.|
w: ev- ery snare, On|Thee I’ll cast my|care.|
w: griev- ous be, My|heart shall trust in|Thee.|
w: i- dol flee, And|wor- ship on- ly|Thee.|
V:2
 x8 | x8 | x8 | x8 | x8 | x4 D2 D2 | x8 | x8 |] %8
V:3
 [G,D]4 [G,C]2 [G,B,]2 | [D,D]6 z2 | [D,D]2 ([D,D][D,D]) [D,D]2 [D,D]2 | [G,D]6 z2 | %4
 G,4 [D,F,]2 [E,G,]2 | [C,G,]2 [C,G,]2 [B,,G,]2 [B,,G,]2 | [C,G,]2 [C,E,]2 D,2 D,2 | [G,,D,]6 z2 |] %8
V:4
 x8 | x8 | x8 | x8 | G,4 x4 | x8 | x4 D,2 D,2 | x8 |] %8

